X:6
%
%%barnumbers 0
%%barnumberfirst 37
%%topspace -0.5cm
%
L:1/4
M:C|
K:F
%
V:S  clef=treble  bracket=4
V:A1 clef=treble8 brace=2
V:A2 clef=treble8
V:T  clef=treble8
%
P:Bassus tacet
[V:S] z4 | z4 | z2 F2- | F2 G2 | F2 B2- |
w: Et* mi-se -
[V:A1] z2 f2 | f f2 e | fg f B/c/ | d/e/ f2 e | f2 d2 |
w: Et mi-se-ri-cor-di-a e* **-* - jus
[V:A2] B2 BB- | BA Bc | B G/A/B/c/ d- | dc dc- | c/A/ d3/2 c/B/A/ |
w: Et mi-se - ri-cor-di-a e*** - **-* ***-** 
[V:T] z4 | z4 | B2 BB- | BA Bc | A B3/2 A/G/F/ |
w: Et mi-se - ri-cor-di-a e -**
%
%%vskip 0.5cm
%
[V:S] BB B2 | BB B2 | B4 | z2 B2- |
w: - ri-cor-di-a e-jus a
[V:A1] z B2 G | B>c d_e | d/c/B/A/ G2 | z B2 G |
w: a pro-ge -* ni-e,**** a pro-
[V:A2] GF G/A/B/c/ | d2 G2 | z B2 G | B>c d_e |
w: **-*** - jus a pro-ge -* ni-
[V:T] _ED _E2 | B, B2 G | B>c d_e | d/c/B/A/ G2- |
w: -* - jus a pro-ge -* ni-e****
%
%%newpage
%
[V:S] BBBB | B2 z B- | BB cd- | d/c/ B2 A | B4 |
w: * pro-ge-ni-e in* pro-ge - **- ni-es
[V:A1] B>c d_e | d2 z G | d2 f>e | d3/2 c//B// cc | Bd d2- |
w: ge -* ni-e in pro-ge* -*** ni-es ti-men-
[V:A2] d/c/B/A/ GB- | BB cd- | d/c/ B2 A | B/c/d/e/ f2- | f2 z f |
w: e**** in* pro-ge - **- ni-es***** ti-
[V:T] G2 z G- | GG AB- | B/A/G F2 | G2 F2 | z B B2- |
w: * in* pro-ge - **-* ni-es ti-men-
%
[V:S] z4 | z4 | z2 z B | B3 A | A2 FG- |
w: ti-men-ti-bus e -
[V:A1] dc c2 | AB A2 | Gg g2- | gf f2 | ef2 e/d/ |
w: - ti-bus e *- um, ti-men - ti-bus e *-*
[V:A2] f2 ec | d>B c2 | B_e e2- | ed d2 | cd2 c/B/ |
w: men-ti-bus e *- um, ti-men - ti-bus e - -*
[V:T] BA A2 | FG2 ^F | G2 z2 | z4 | z4 |
w: - ti-bus e -- um,
%
[V:S] G^F GB | B3 A | A2 F2 | G3^F | G4 |]
w: -* um, ti-men-ti-bus e - * um.
[V:A1] c2 d2- | d2 z2 | z f f2 | _ec d2 | d4 |]
w: - um,* ti-men-ti-bus e-um.
[V:A2] A2 G2 | z d d2 | cA2 B- | B A/G/ A2 | G4 |]
w: - um, ti-men-ti-bus e -**- um.
[V:T] z2 z G | G3 F | F2 D2 | _E2 D2 | G4 |]
w: ti-men-ti-bus e -* um.

%---------------------------------------------------------------------------
